X: 302
T: Krivo Sadovsko Horo
B: incoming
M:13/16
L:1/16
Q: 1/4=108
K:Em
V:1 
%%MIDI program 45
%%MIDI program 73
|: Bc^de f2e^de cBc^d  |Bc^de f2e^de cBc^d   :| 
%%MIDI program 110
|: Bc^de f2e^de cBc^d  |Bc^de f2e^de cBc^d   :| 
V:2 
|: z2B,,2 z3B,,2 z2F,,2|z2B,,2 z3B,,2 z2F,,2 :|
|: z2B,,2 z3B,,2 z2F,,2|z2B,,2 z3B,,2 z2F,,2 :|
% abcbook-tune_id 63cb082fa6f4b7fe6dea467d
% abcbook-tune_composer_id 
% abcbook-boost 0
% abcbook-difficulty 0
% abcbook-tags balkan dances
% abcbook-tablature 
% abcbook-transpose 
% abcbook-tuning 
% abcbook-lastupdated 1674250287866
% abcbook-soundfonts 
% abcbook-repeats 1


